X: 11287
T: E Trouz Ar Ger
R: reel
M: 4/4
K: Dmajor
|:f2ef B3f|fede A4|A2Bc e2d2|edcA f4|
f2ef B2B{d}B|fede A4|A2Bc e2d2|edcA B4:|
|:B2cd f3g|a2g2 e4|B2df e2f2|edcA f4|
B2cd fefg|a2g2 e4|B2df e2f2|edcA B4:|

